assets/img/subrayado.svg

<svg width="420" height="33" viewBox="0 0 420 33" fill="none" xmlns="http://www.w3.org/2000/svg">
  <!-- Esto asegura que el fondo del SVG es transparente -->
  <rect width="100%" height="100%" fill="none"/>
  <path d="M1 15.6221C123.656 12.8976 245.969 6.7827 368.549 3.13148C384.276 2.66305 400.049 2.3766 415.746 1.56599C416.773 1.51298 419.818 1.284 418.791 1.23291C406.893 0.64082 393.997 1.28527 382.252 1.96569C329.517 5.02066 277.434 11.7364 224.858 15.6887C170.169 19.7999 114.984 21.1343 60.5345 26.4806C56.3938 26.8872 49.6711 27.6223 44.9946 28.0461C44.2619 28.1125 42.0522 28.172 42.7896 28.2127C47.4667 28.4707 52.1715 27.971 56.8595 27.813C116.47 25.8038 175.929 22.2823 235.41 19.1528C282.257 16.6881 422.997 11.0289 376.057 12.6244C328.221 14.2502 280.489 16.8337 232.838 19.9522C173.78 23.8173 114.53 30.3345 55.127 31.7434C51.4948 31.8295 50.9863 31.7955 54.602 31.8433C65.6444 31.9892 66.988 32.0322 81.2718 31.9765C146.807 31.7209 212.227 29.6656 277.673 27.6797C294.815 27.1596 311.028 27.0501 328.072 27.9129C329.926 28.0067 340.901 28.6124 344.137 28.6124C348.706 28.6124 341.274 27.0401 341.197 27.0136" stroke="#955AB1" stroke-width="2" stroke-linecap="round"/>
</svg>

<svg xmlns="http://www.w3.org/2000/svg" width="420" height="33" fill="none"><rect width="100%" height="100%"/><path stroke="#955AB1" stroke-linecap="round" stroke-width="2" d="M1 15.622c122.656-2.724 244.969-8.84 367.549-12.49 15.727-.469 31.5-.755 47.197-1.566 1.027-.053 4.072-.282 3.045-.333-11.898-.592-24.794.052-36.539.733-52.735 3.055-104.818 9.77-157.394 13.723-54.689 4.11-109.874 5.445-164.323 10.792-4.141.406-10.864 1.141-15.54 1.565-.733.067-2.943.126-2.205.167 4.677.258 9.382-.242 14.07-.4 59.61-2.01 119.069-5.53 178.55-8.66 46.847-2.465 187.587-8.124 140.647-6.529-47.836 1.626-95.568 4.21-143.219 7.328C173.78 23.817 114.53 30.334 55.127 31.743c-3.632.087-4.14.053-.525.1 11.042.146 12.386.19 26.67.134 65.535-.256 130.955-2.311 196.401-4.297 17.142-.52 33.355-.63 50.399.233 1.854.094 12.829.7 16.065.7 4.569 0-2.863-1.573-2.94-1.6"/></svg>
